temp/img/home-services/web.svg

<svg width="128" height="128" viewBox="0 0 128 128" fill="none" xmlns="http://www.w3.org/2000/svg">
<mask id="mask0" mask-type="alpha" maskUnits="userSpaceOnUse" x="12" y="0" width="104" height="128">
<path d="M104.533 0H23.4667C17.5787 0.00693333 12.807 4.77867 12.8 10.6667V68.2667C12.807 74.1547 17.5787 78.9264 23.4667 78.9333H52.6379L49.5915 89.6H42.6667V93.8667H85.3334V89.6H78.4086L75.3622 78.9333H104.533C110.421 78.9264 115.193 74.1547 115.2 68.2667V10.6667C115.193 4.77867 110.421 0.00693333 104.533 0ZM54.0288 89.6L57.0752 78.9333H70.9248L73.9712 89.6H54.0288ZM110.933 68.2667C110.933 71.8013 108.068 74.6667 104.533 74.6667H23.4667C19.932 74.6667 17.0667 71.8013 17.0667 68.2667V64H110.933V68.2667ZM110.933 59.7333H17.0667V10.6667C17.0667 7.132 19.932 4.26667 23.4667 4.26667H104.533C108.068 4.26667 110.933 7.132 110.933 10.6667V59.7333Z" fill="#97D644"/>
<path d="M81.0666 98.1333H21.3333C20.1552 98.1333 19.2 99.0885 19.2 100.267V125.867C19.2 127.045 20.1552 128 21.3333 128H81.0666C82.2447 128 83.1999 127.045 83.1999 125.867V100.267C83.1999 99.0885 82.2447 98.1333 81.0666 98.1333ZM78.9333 123.733H23.4666V102.4H78.9333V123.733Z" fill="#97D644"/>
<path d="M32.0001 115.2H27.7334V119.467H32.0001V115.2Z" fill="#97D644"/>
<path d="M32.0001 106.667H27.7334V110.933H32.0001V106.667Z" fill="#97D644"/>
<path d="M40.5333 106.667H36.2666V110.933H40.5333V106.667Z" fill="#97D644"/>
<path d="M49.0667 106.667H44.8V110.933H49.0667V106.667Z" fill="#97D644"/>
<path d="M66.1334 106.667H61.8667V110.933H66.1334V106.667Z" fill="#97D644"/>
<path d="M57.5999 106.667H53.3333V110.933H57.5999V106.667Z" fill="#97D644"/>
<path d="M74.6666 115.2H70.3999V119.467H74.6666V115.2Z" fill="#97D644"/>
<path d="M74.6666 106.667H70.3999V110.933H74.6666V106.667Z" fill="#97D644"/>
<path d="M66.1333 115.2H36.2666V119.467H66.1333V115.2Z" fill="#97D644"/>
<path d="M98.1332 98.1333C92.2423 98.1333 87.4666 102.909 87.4666 108.8V117.333C87.4666 123.224 92.2423 128 98.1332 128C104.024 128 108.8 123.224 108.8 117.333V108.8C108.8 102.909 104.024 98.1333 98.1332 98.1333ZM104.533 117.333C104.533 120.868 101.668 123.733 98.1332 123.733C94.5986 123.733 91.7332 120.868 91.7332 117.333V108.8C91.7332 105.265 94.5986 102.4 98.1332 102.4C101.668 102.4 104.533 105.265 104.533 108.8V117.333Z" fill="#97D644"/>
<path d="M100.267 106.667H96V110.933H100.267V106.667Z" fill="#97D644"/>
<path d="M66.2061 18.6581L57.6648 48.5077L61.765 49.6809L70.3063 19.8314L66.2061 18.6581Z" fill="#97D644"/>
<path d="M52.5653 25.105L49.8346 21.8282L37.0346 32.4949C36.1298 33.2496 36.008 34.5946 36.7626 35.4997C36.845 35.5984 36.936 35.6896 37.0346 35.7717L49.8346 46.4384L52.5653 43.1616L41.7322 34.1333L52.5653 25.105Z" fill="#97D644"/>
<path d="M91.2373 32.7669C91.1549 32.6682 91.0639 32.577 90.9653 32.4949L78.1652 21.8282L75.4346 25.105L86.2676 34.1333L75.4346 43.1616L78.1652 46.4384L90.9653 35.7717C91.8701 35.017 91.9919 33.672 91.2373 32.7669Z" fill="#97D644"/>
</mask>
<g mask="url(#mask0)">
<path d="M104.533 0H23.4667C17.5787 0.00693333 12.807 4.77867 12.8 10.6667V68.2667C12.807 74.1547 17.5787 78.9264 23.4667 78.9333H52.6379L49.5915 89.6H42.6667V93.8667H85.3334V89.6H78.4086L75.3622 78.9333H104.533C110.421 78.9264 115.193 74.1547 115.2 68.2667V10.6667C115.193 4.77867 110.421 0.00693333 104.533 0ZM54.0288 89.6L57.0752 78.9333H70.9248L73.9712 89.6H54.0288ZM110.933 68.2667C110.933 71.8013 108.068 74.6667 104.533 74.6667H23.4667C19.932 74.6667 17.0667 71.8013 17.0667 68.2667V64H110.933V68.2667ZM110.933 59.7333H17.0667V10.6667C17.0667 7.132 19.932 4.26667 23.4667 4.26667H104.533C108.068 4.26667 110.933 7.132 110.933 10.6667V59.7333Z" fill="#97D644"/>
<path d="M81.0666 98.1333H21.3333C20.1552 98.1333 19.2 99.0885 19.2 100.267V125.867C19.2 127.045 20.1552 128 21.3333 128H81.0666C82.2447 128 83.1999 127.045 83.1999 125.867V100.267C83.1999 99.0885 82.2447 98.1333 81.0666 98.1333ZM78.9333 123.733H23.4666V102.4H78.9333V123.733Z" fill="#97D644"/>
<path d="M32.0001 115.2H27.7334V119.467H32.0001V115.2Z" fill="#97D644"/>
<path d="M32.0001 106.667H27.7334V110.933H32.0001V106.667Z" fill="#97D644"/>
<path d="M40.5333 106.667H36.2666V110.933H40.5333V106.667Z" fill="#97D644"/>
<path d="M49.0667 106.667H44.8V110.933H49.0667V106.667Z" fill="#97D644"/>
<path d="M66.1334 106.667H61.8667V110.933H66.1334V106.667Z" fill="#97D644"/>
<path d="M57.5999 106.667H53.3333V110.933H57.5999V106.667Z" fill="#97D644"/>
<path d="M74.6666 115.2H70.3999V119.467H74.6666V115.2Z" fill="#97D644"/>
<path d="M74.6666 106.667H70.3999V110.933H74.6666V106.667Z" fill="#97D644"/>
<path d="M66.1333 115.2H36.2666V119.467H66.1333V115.2Z" fill="#97D644"/>
<path d="M98.1332 98.1333C92.2423 98.1333 87.4666 102.909 87.4666 108.8V117.333C87.4666 123.224 92.2423 128 98.1332 128C104.024 128 108.8 123.224 108.8 117.333V108.8C108.8 102.909 104.024 98.1333 98.1332 98.1333ZM104.533 117.333C104.533 120.868 101.668 123.733 98.1332 123.733C94.5986 123.733 91.7332 120.868 91.7332 117.333V108.8C91.7332 105.265 94.5986 102.4 98.1332 102.4C101.668 102.4 104.533 105.265 104.533 108.8V117.333Z" fill="#97D644"/>
<path d="M100.267 106.667H96V110.933H100.267V106.667Z" fill="#97D644"/>
<path d="M66.2061 18.6581L57.6648 48.5077L61.765 49.6809L70.3063 19.8314L66.2061 18.6581Z" fill="#97D644"/>
<path d="M52.5653 25.105L49.8346 21.8282L37.0346 32.4949C36.1298 33.2496 36.008 34.5946 36.7626 35.4997C36.845 35.5984 36.936 35.6896 37.0346 35.7717L49.8346 46.4384L52.5653 43.1616L41.7322 34.1333L52.5653 25.105Z" fill="#97D644"/>
<path d="M91.2373 32.7669C91.1549 32.6682 91.0639 32.577 90.9653 32.4949L78.1652 21.8282L75.4346 25.105L86.2676 34.1333L75.4346 43.1616L78.1652 46.4384L90.9653 35.7717C91.8701 35.017 91.9919 33.672 91.2373 32.7669Z" fill="#97D644"/>
<rect x="-26.2151" y="-14" width="172.792" height="140.597" rx="25" fill="url(#paint0_linear)"/>
<path fill-rule="evenodd" clip-rule="evenodd" d="M-63.3984 75.2358C-63.3984 75.2358 -42.0384 -39.6096 7.51893 30.6039C47.73 87.5755 52.5074 94.3794 70.9962 83.0078C92.6775 69.6727 96.6765 30.6039 107.464 30.6039C118.251 30.6039 134.153 99.0056 142.911 87.5755C151.669 76.1454 158.468 41.8044 176.304 41.8044C194.141 41.8044 191.544 84.2166 191.544 84.2166L184.175 133.747L78.2244 126.671L-60.8351 143" fill="url(#paint1_linear)"/>
</g>
<defs>
<linearGradient id="paint0_linear" x1="-26.2151" y1="56.2984" x2="145.596" y2="56.4545" gradientUnits="userSpaceOnUse">
<stop stop-color="#459622"/>
<stop offset="1" stop-color="#B0E94F"/>
</linearGradient>
<linearGradient id="paint1_linear" x1="182.461" y1="46.9252" x2="-47.0964" y2="48.2089" gradientUnits="userSpaceOnUse">
<stop stop-color="#5CA82C"/>
<stop offset="0.0001" stop-color="#68B231"/>
<stop offset="1" stop-color="#A6E24B"/>
</linearGradient>
</defs>
</svg>

<svg width="128" height="128" viewBox="0 0 128 128" fill="none" xmlns="http://www.w3.org/2000/svg"><mask id="a" maskUnits="userSpaceOnUse" x="12" y="0" width="104" height="128"><path d="M104.533 0H23.467C17.579.007 12.807 4.779 12.8 10.667v57.6c.007 5.888 4.779 10.66 10.667 10.666h29.17L49.593 89.6h-6.925v4.267h42.666V89.6H78.41l-3.047-10.667h29.171c5.888-.007 10.66-4.778 10.667-10.666v-57.6C115.193 4.779 110.421.007 104.533 0zM54.029 89.6l3.046-10.667h13.85L73.97 89.6H54.03zm56.904-21.333a6.4 6.4 0 0 1-6.4 6.4H23.467a6.4 6.4 0 0 1-6.4-6.4V64h93.866v4.267zm0-8.534H17.067V10.667a6.4 6.4 0 0 1 6.4-6.4h81.066a6.4 6.4 0 0 1 6.4 6.4v49.066zm-29.866 38.4H21.333a2.133 2.133 0 0 0-2.133 2.134v25.6c0 1.178.955 2.133 2.133 2.133h59.734a2.133 2.133 0 0 0 2.133-2.133v-25.6a2.133 2.133 0 0 0-2.133-2.134zm-2.134 25.6H23.467V102.4h55.466v21.333z" fill="#97D644"/><path d="M32 115.2h-4.267v4.267H32V115.2zm0-8.533h-4.267v4.266H32v-4.266zm8.533 0h-4.266v4.266h4.266v-4.266zm8.534 0H44.8v4.266h4.267v-4.266zm17.066 0h-4.266v4.266h4.266v-4.266zm-8.533 0h-4.267v4.266H57.6v-4.266zm17.067 8.533H70.4v4.267h4.267V115.2zm0-8.533H70.4v4.266h4.267v-4.266zm-8.534 8.533H36.267v4.267h29.866V115.2zm32-17.067c-5.89 0-10.666 4.776-10.666 10.667v8.533c0 5.891 4.775 10.667 10.666 10.667s10.667-4.776 10.667-10.667V108.8c0-5.891-4.776-10.667-10.667-10.667zm6.4 19.2a6.4 6.4 0 1 1-12.8 0V108.8a6.4 6.4 0 1 1 12.8 0v8.533z" fill="#97D644"/><path d="M100.267 106.667H96v4.266h4.267v-4.266zM66.206 18.658l-8.541 29.85 4.1 1.173 8.541-29.85-4.1-1.173zm-13.641 6.447l-2.73-3.277-12.8 10.667a2.133 2.133 0 0 0 0 3.277l12.8 10.666 2.73-3.276-10.833-9.029 10.833-9.028zm38.672 7.662a2.131 2.131 0 0 0-.272-.272l-12.8-10.667-2.73 3.277 10.833 9.028-10.833 9.029 2.73 3.276 12.8-10.666a2.133 2.133 0 0 0 .272-3.005z" fill="#97D644"/></mask><g mask="url(#a)"><path d="M104.533 0H23.467C17.579.007 12.807 4.779 12.8 10.667v57.6c.007 5.888 4.779 10.66 10.667 10.666h29.17L49.593 89.6h-6.925v4.267h42.666V89.6H78.41l-3.047-10.667h29.171c5.888-.007 10.66-4.778 10.667-10.666v-57.6C115.193 4.779 110.421.007 104.533 0zM54.029 89.6l3.046-10.667h13.85L73.97 89.6H54.03zm56.904-21.333a6.4 6.4 0 0 1-6.4 6.4H23.467a6.4 6.4 0 0 1-6.4-6.4V64h93.866v4.267zm0-8.534H17.067V10.667a6.4 6.4 0 0 1 6.4-6.4h81.066a6.4 6.4 0 0 1 6.4 6.4v49.066zm-29.866 38.4H21.333a2.133 2.133 0 0 0-2.133 2.134v25.6c0 1.178.955 2.133 2.133 2.133h59.734a2.133 2.133 0 0 0 2.133-2.133v-25.6a2.133 2.133 0 0 0-2.133-2.134zm-2.134 25.6H23.467V102.4h55.466v21.333z" fill="#97D644"/><path d="M32 115.2h-4.267v4.267H32V115.2zm0-8.533h-4.267v4.266H32v-4.266zm8.533 0h-4.266v4.266h4.266v-4.266zm8.534 0H44.8v4.266h4.267v-4.266zm17.066 0h-4.266v4.266h4.266v-4.266zm-8.533 0h-4.267v4.266H57.6v-4.266zm17.067 8.533H70.4v4.267h4.267V115.2zm0-8.533H70.4v4.266h4.267v-4.266zm-8.534 8.533H36.267v4.267h29.866V115.2zm32-17.067c-5.89 0-10.666 4.776-10.666 10.667v8.533c0 5.891 4.775 10.667 10.666 10.667s10.667-4.776 10.667-10.667V108.8c0-5.891-4.776-10.667-10.667-10.667zm6.4 19.2a6.4 6.4 0 1 1-12.8 0V108.8a6.4 6.4 0 1 1 12.8 0v8.533z" fill="#97D644"/><path d="M100.267 106.667H96v4.266h4.267v-4.266zM66.206 18.658l-8.541 29.85 4.1 1.173 8.541-29.85-4.1-1.173zm-13.641 6.447l-2.73-3.277-12.8 10.667a2.133 2.133 0 0 0 0 3.277l12.8 10.666 2.73-3.276-10.833-9.029 10.833-9.028zm38.672 7.662a2.131 2.131 0 0 0-.272-.272l-12.8-10.667-2.73 3.277 10.833 9.028-10.833 9.029 2.73 3.276 12.8-10.666a2.133 2.133 0 0 0 .272-3.005z" fill="#97D644"/><rect x="-26.215" y="-14" width="172.792" height="140.597" rx="25" fill="url(#paint0_linear)"/><path fill-rule="evenodd" clip-rule="evenodd" d="M-63.398 75.236S-42.038-39.61 7.519 30.604C47.73 87.576 52.507 94.379 70.996 83.008c21.681-13.335 25.68-52.404 36.468-52.404 10.787 0 26.689 68.402 35.447 56.972 8.758-11.43 15.557-45.772 33.393-45.772 17.837 0 15.24 42.413 15.24 42.413l-7.369 49.53-105.95-7.076L-60.836 143" fill="url(#paint1_linear)"/></g><defs><linearGradient id="paint0_linear" x1="-26.215" y1="56.298" x2="145.596" y2="56.455" gradientUnits="userSpaceOnUse"><stop stop-color="#459622"/><stop offset="1" stop-color="#B0E94F"/></linearGradient><linearGradient id="paint1_linear" x1="182.461" y1="46.925" x2="-47.096" y2="48.209" gradientUnits="userSpaceOnUse"><stop stop-color="#5CA82C"/><stop offset="0" stop-color="#68B231"/><stop offset="1" stop-color="#A6E24B"/></linearGradient></defs></svg>
